storage/app/icons/phosphoricons/regular/gps-fix.svg

<svg xmlns="http://www.w3.org/2000/svg" fill="currentColor" viewBox="0 0 256 256"><path d="M240 120h-24.37A88.13 88.13 0 0 0 136 40.37V16a8 8 0 0 0-16 0v24.37A88.13 88.13 0 0 0 40.37 120H16a8 8 0 0 0 0 16h24.37A88.13 88.13 0 0 0 120 215.63V240a8 8 0 0 0 16 0v-24.37A88.13 88.13 0 0 0 215.63 136H240a8 8 0 0 0 0-16m-112 80a72 72 0 1 1 72-72 72.08 72.08 0 0 1-72 72m0-112a40 40 0 1 0 40 40 40 40 0 0 0-40-40m0 64a24 24 0 1 1 24-24 24 24 0 0 1-24 24"/></svg>

<svg xmlns="http://www.w3.org/2000/svg" viewBox="0 0 256 256" fill="currentColor"><path d="M240,120H215.63A88.13,88.13,0,0,0,136,40.37V16a8,8,0,0,0-16,0V40.37A88.13,88.13,0,0,0,40.37,120H16a8,8,0,0,0,0,16H40.37A88.13,88.13,0,0,0,120,215.63V240a8,8,0,0,0,16,0V215.63A88.13,88.13,0,0,0,215.63,136H240a8,8,0,0,0,0-16ZM128,200a72,72,0,1,1,72-72A72.08,72.08,0,0,1,128,200Zm0-112a40,40,0,1,0,40,40A40,40,0,0,0,128,88Zm0,64a24,24,0,1,1,24-24A24,24,0,0,1,128,152Z"/></svg>
